X: 108006
T: The DRUMMERS
Q: "Reel."
R:  Reel.
%R: reel
B: James Kerr "Merry Melodies" v.1 p.8 s.0 #6
N: This tune is the end of the 2nd set on page 7.
Z: 2017 John Chambers <jc:trillian.mit.edu>
M: C
L: 1/8
K: Am
uE |\
ABcA E2(E^F) | GABc dBGB |\
ABcA E2-Ef | edcB A2-A :|\
uB |\
c2ce d2de | c2ce (dB)GB |
c2ce d2df | edcB A2(AB) |\
ccce ddde | ccce dBGB |\
ccce dddf | edcB A2-A |]\
"_Fine."A4 ||

% %newpage
%%sep 1 1 500
%%sep 1 1 500
%%center Set. 10th.

%%sep 1 1 500
%%sep 1 1 500

